public/img/breakfast.svg

<svg width="101" height="100" viewBox="0 0 101 100" fill="none" xmlns="http://www.w3.org/2000/svg">
<mask id="mask0_189_2114" style="mask-type:alpha" maskUnits="userSpaceOnUse" x="0" y="0" width="101" height="100">
<rect x="0.5" width="100" height="100" fill="#D9D9D9"/>
</mask>
<g mask="url(#mask0_189_2114)">
<path d="M29.6667 91.6667V53.5417C26.1251 52.5694 23.1563 50.625 20.7605 47.7083C18.3647 44.7917 17.1667 41.3889 17.1667 37.5V8.33333H25.5001V37.5H29.6667V8.33333H38.0001V37.5H42.1667V8.33333H50.5001V37.5C50.5001 41.3889 49.3022 44.7917 46.9063 47.7083C44.5105 50.625 41.5417 52.5694 38.0001 53.5417V91.6667H29.6667ZM71.3334 91.6667V58.3333H58.8334V29.1667C58.8334 23.4028 60.8647 18.4896 64.9272 14.4271C68.9897 10.3646 73.9029 8.33333 79.6667 8.33333V91.6667H71.3334Z" fill="white"/>
</g>
</svg>

<svg xmlns="http://www.w3.org/2000/svg" width="101" height="100" fill="none"><mask id="a" width="101" height="100" x="0" y="0" maskUnits="userSpaceOnUse" style="mask-type:alpha"><path fill="#D9D9D9" d="M.5 0h100v100H.5z"/></mask><g mask="url(#a)"><path fill="#fff" d="M29.667 91.667V53.542q-5.312-1.459-8.907-5.834-3.593-4.375-3.593-10.208V8.333H25.5V37.5h4.167V8.333H38V37.5h4.167V8.333H50.5V37.5q0 5.834-3.594 10.208T38 53.542v38.125zm41.666 0V58.333h-12.5V29.167q0-8.646 6.094-14.74t14.74-6.094v83.334z"/></g></svg>
